X:1
T:St. Jerome (Horsley), CM
T:St. Jerome (Horsley), CM
T:Charles Edward Horsley (1822-1876)
T:Public Domain Courtesy of the Cyber Hymnal™
C:Charles Edward Horsley (1822-1876)
Z:Public Domain
Z:Courtesy of the Cyber Hymnal™
%%score ( 1 2 ) ( 3 4 )
L:1/8
Q:1/4=107
M:4/4
K:Eb
V:1 treble 
V:2 treble 
V:3 bass 
V:4 bass 
V:1
 [EG]2 | [EA]2 [DF]2 E2 [EG]2 | [DB]2 c2 [EB]2 [EB]2 | [Ec]2 [DB]2 [Ee]2 [EG]2 | [DF]6 (FG) | %5
 [CA]2 [B,B]2 [B,G]2 [EB]2 | [Ec]2 [Fd]2 [Ee]2 [Ec]2 | [EB]2 [EG]2 [FA]2 [DF]2 | E6 |] %9
V:2
 x2 | x4 E2 x2 | x2 (CD) x4 | x8 | x6 D2 | x8 | x8 | x8 | E6 |] %9
V:3
 [E,B,]2 | [A,,C]2 (B,A,) [C,G,]2 [C,E,]2 | (F,G,) [A,,A,]2 [E,G,]2 [G,B,]2 | %3
 A,2 [A,F]2 [G,B,]2 [E,B,]2 | [B,,B,]6 [B,,B,]2 | [C,E,]2 [D,F,]2 [E,G,]2 (E,B,) | %6
 [A,,B,]2 [F,,A,]2 [C,G,]2 [A,,A,]2 | [G,,B,]2 [C,C]2 [A,,C]2 (B,A,) | [E,G,]6 |] %9
V:4
 x2 | x2 B,,2 x4 | B,,2 x6 | A,2 x6 | x8 | x6 G,,2 | x8 | x6 B,,2 | x6 |] %9

